X:200
T:The Blue Sky 
R:
C:Bruce Osborne - Jan. 2002
Z:abc by bosborne@kos.net
M:3/4
L:1/8
K:Eb
Bc|B2 G2 GF|E2 B,2 (3G,A,B,|EB, EG cG|B4 ga|\
g2 f3 =e|f4 fg|f2 e3 d|e4 Bc|\
B2 G2 GF|E2 B,2 (3G,A,B,|EB, EG cG|B4 ga|\
g2 f3 =e|f4 fg|f2 e3 d|e4||\
G,A,|B,2 G,3 B,|C2 A,3 C|B,=A, B,E cG|B4 ga|\
g2 f3 =e|f4 fg|f2 e3 d|e4 G,A,|\
B,2 G,3 B,|C2 A,3 C|B,=A, B,E cG|B4 ga|\
g2 f3 =e|f4 fg|f2 e3 d|e4||
